X: 13701
T: For The Birds
R: jig
M: 6/8
K: Gmajor
d2c|:B3 BAB|cEG c2B|ADF A2A|ceg fed|
B3 BAB|cEG c2B|ADF AGA|cBA G2D:|
|:Ecd c2D|Ecd cBA|Bga g3|edc BAG|
Ecd c2B|cde gfe|1 f2A gA^g|a3 a2D:|2 f2A gfe|ded cBA||

